X:111
T:111 Untitled March
C:Welch MS
I:abc2nwc
M:4/4
L:1/8
K:D
A2|d2d3/2d/2 c3/2d/2e3/2c/2|d2d3/2d/2 d2zA|f3f e3/2f/2g3/2e/2|f2f3/2f/2 f2z2|
d3e f3/2f/2e3/2d/2|c3/2A/2c3/2e/2 a3g|f3/2a/2f3/2d/2 c2B2|A2A3/2A/2 A2:|
A2|a3g f3/2d/2f3/2a/2|g2 (3gab e2zA|g3g e3/2c/2e3/2g/2|f2 (3fga d2zA|
d3/2f/2e3/2g/2 f3d|f3/2a/2g3/2b/2 a3g|f3/2a/2b3/2g/2 f3e|d2d3/2d/2 d2:|

